;FLAVOR:Marlin
;TIME:4988
;Filament used: 7.46199m, 0m
;Layer height: 0.3
;MINX:45.2
;MINY:65.7
;MINZ:0.3
;MAXX:154.8
;MAXY:134.3
;MAXZ:23.4
;Generated with Cura_SteamEngine 4.8.0
T0
M140 S60
M105
M190 S60
M104 S200
M105
M109 S200
M82 ;absolute extrusion mode
G28 ;Home
G1 Z15.0 F6000 ;Move the platform down 15mm
;Prime the extruder
G92 E0
G1 F200 E3
G92 E0
G92 E0
G92 E0
G1 F1500 E-6.5
;LAYER_COUNT:78
;LAYER:0
M107
G0 F3600 X49.624 Y68.048 Z0.3
;TYPE:SKIRT
G1 F1500 E0
G1 F1800 X50.26 Y67.58 E0.03939
G1 X50.877 Y67.212 E0.07524
G1 X51.478 Y66.89 E0.10925
G1 X52.192 Y66.552 E0.14866
G1 X52.902 Y66.3 E0.18625
G1 X53.556 Y66.102 E0.22034
G1 X54.322 Y65.911 E0.25973
G1 X55.057 Y65.804 E0.29678
G1 X55.742 Y65.737 E0.33112
G1 X56.501 Y65.7 E0.36903
G1 X143.499 Y65.7 E4.70938
G1 X144.272 Y65.738 E4.74799
G1 X144.965 Y65.807 E4.78274
G1 X145.746 Y65.925 E4.82214
G1 X146.457 Y66.105 E4.85874
G1 X147.103 Y66.301 E4.89242
G1 X147.846 Y66.568 E4.9318
G1 X148.535 Y66.897 E4.9699
G1 X149.15 Y67.228 E5.00474
G1 X149.825 Y67.637 E5.04412
G1 X150.404 Y68.069 E5.08016
G1 X150.925 Y68.497 E5.1138
G1 X151.509 Y69.028 E5.15317
G1 X152.013 Y69.587 E5.19073
G1 X152.452 Y70.124 E5.22533
G1 X152.92 Y70.76 E5.26472
G1 X153.288 Y71.377 E5.30057
G1 X153.61 Y71.978 E5.33458
G1 X153.948 Y72.692 E5.37399
G1 X154.199 Y73.399 E5.41142
G1 X154.397 Y74.052 E5.44547
G1 X154.588 Y74.818 E5.48485
G1 X154.696 Y75.555 E5.52201
G1 X154.763 Y76.239 E5.5563
G1 X154.8 Y76.999 E5.59426
G1 X154.799 Y123.007 E7.88961
G1 X154.761 Y123.778 E7.92812
G1 X154.693 Y124.463 E7.96247
G1 X154.575 Y125.243 E8.00182
G1 X154.395 Y125.957 E8.03856
G1 X154.199 Y126.603 E8.07224
G1 X153.932 Y127.346 E8.11163
G1 X153.606 Y128.031 E8.14948
G1 X153.276 Y128.645 E8.18425
G1 X152.867 Y129.32 E8.22363
G1 X152.431 Y129.904 E8.25999
G1 X152.002 Y130.426 E8.2937
G1 X151.47 Y131.01 E8.33311
G1 X150.913 Y131.513 E8.37055
G1 X150.376 Y131.952 E8.40516
G1 X149.74 Y132.42 E8.44455
G1 X149.123 Y132.788 E8.48039
G1 X148.522 Y133.11 E8.51441
G1 X147.808 Y133.448 E8.55382
G1 X147.098 Y133.7 E8.59141
G1 X146.444 Y133.898 E8.6255
G1 X145.678 Y134.089 E8.66489
G1 X144.943 Y134.196 E8.70194
G1 X144.258 Y134.263 E8.73628
G1 X143.499 Y134.3 E8.77419
G1 X56.493 Y134.299 E13.11494
G1 X55.722 Y134.261 E13.15345
G1 X55.037 Y134.193 E13.18779
G1 X54.257 Y134.075 E13.22715
G1 X53.543 Y133.895 E13.26389
G1 X52.897 Y133.699 E13.29757
G1 X52.154 Y133.432 E13.33696
G1 X51.465 Y133.103 E13.37505
G1 X50.85 Y132.772 E13.40989
G1 X50.175 Y132.363 E13.44927
G1 X49.593 Y131.929 E13.48549
G1 X49.07 Y131.499 E13.51927
G1 X48.487 Y130.967 E13.55864
G1 X47.984 Y130.41 E13.59609
G1 X47.546 Y129.874 E13.63062
G1 X47.078 Y129.238 E13.67001
G1 X46.708 Y128.618 E13.70604
G1 X46.387 Y128.018 E13.73998
G1 X46.051 Y127.303 E13.7794
G1 X45.8 Y126.598 E13.81673
G1 X45.602 Y125.944 E13.85082
G1 X45.411 Y125.178 E13.89021
G1 X45.304 Y124.445 E13.92717
G1 X45.237 Y123.762 E13.96141
G1 X45.2 Y123.001 E13.99942
G1 X45.201 Y76.993 E16.29477
G1 X45.239 Y76.224 E16.33318
G1 X45.307 Y75.538 E16.36757
G1 X45.425 Y74.757 E16.40698
G1 X45.606 Y74.039 E16.44392
G1 X45.802 Y73.394 E16.47755
G1 X46.07 Y72.651 E16.51696
G1 X46.397 Y71.965 E16.55487
G1 X46.728 Y71.35 E16.58972
G1 X47.137 Y70.675 E16.62909
G1 X47.569 Y70.096 E16.66513
G1 X47.997 Y69.575 E16.69877
G1 X48.528 Y68.991 E16.73815
G1 X49.087 Y68.487 E16.7757
G1 X49.624 Y68.048 E16.8103
G0 F3600 X49.877 Y68.358
G1 F1800 X50.497 Y67.903 E16.84867
G1 X51.066 Y67.564 E16.88172
G1 X51.667 Y67.242 E16.91573
G1 X52.363 Y66.915 E16.9541
G1 X53.018 Y66.682 E16.98878
G1 X53.672 Y66.484 E17.02287
G1 X54.418 Y66.3 E17.06121
G1 X55.096 Y66.202 E17.09538
G1 X55.781 Y66.135 E17.12972
G1 X56.501 Y66.1 E17.16568
G1 X143.499 Y66.1 E21.50603
G1 X144.232 Y66.136 E21.54264
G1 X144.925 Y66.205 E21.57739
G1 X145.686 Y66.321 E21.61579
G1 X146.34 Y66.488 E21.64947
G1 X146.986 Y66.684 E21.68315
G1 X147.71 Y66.945 E21.72155
G1 X148.345 Y67.249 E21.75667
G1 X148.96 Y67.58 E21.79151
G1 X149.618 Y67.979 E21.82991
G1 X150.15 Y68.378 E21.86308
G1 X150.671 Y68.806 E21.89672
G1 X151.239 Y69.324 E21.93507
G1 X151.703 Y69.84 E21.96969
G1 X152.142 Y70.377 E22.0043
G1 X152.597 Y70.997 E22.04267
G1 X152.936 Y71.566 E22.07571
G1 X153.258 Y72.167 E22.10973
G1 X153.585 Y72.863 E22.14809
G1 X153.817 Y73.515 E22.18262
G1 X154.015 Y74.168 E22.21666
G1 X154.199 Y74.914 E22.25499
G1 X154.298 Y75.594 E22.28928
G1 X154.365 Y76.278 E22.32357
G1 X154.4 Y76.999 E22.35958
G1 X154.399 Y123.007 E24.65493
G1 X154.363 Y123.738 E24.69144
G1 X154.295 Y124.423 E24.72578
G1 X154.179 Y125.183 E24.76414
G1 X154.012 Y125.84 E24.79796
G1 X153.816 Y126.486 E24.83164
G1 X153.555 Y127.21 E24.87003
G1 X153.253 Y127.841 E24.90494
G1 X152.923 Y128.455 E24.93971
G1 X152.524 Y129.113 E24.9781
G1 X152.122 Y129.65 E25.01157
G1 X151.693 Y130.172 E25.04528
G1 X151.174 Y130.741 E25.0837
G1 X150.66 Y131.203 E25.11818
G1 X150.123 Y131.642 E25.15279
G1 X149.503 Y132.097 E25.19115
G1 X148.934 Y132.436 E25.2242
G1 X148.333 Y132.758 E25.25821
G1 X147.637 Y133.085 E25.29658
G1 X146.982 Y133.318 E25.33126
G1 X146.328 Y133.516 E25.36535
G1 X145.582 Y133.7 E25.40369
G1 X144.904 Y133.798 E25.43786
G1 X144.219 Y133.865 E25.4722
G1 X143.499 Y133.9 E25.50817
G1 X56.493 Y133.899 E29.84891
G1 X55.762 Y133.863 E29.88543
G1 X55.077 Y133.795 E29.91977
G1 X54.317 Y133.679 E29.95812
G1 X53.66 Y133.512 E29.99194
G1 X53.014 Y133.316 E30.02562
G1 X52.29 Y133.055 E30.06402
G1 X51.655 Y132.751 E30.09914
G1 X51.04 Y132.42 E30.13399
G1 X50.382 Y132.021 E30.17238
G1 X49.847 Y131.62 E30.20574
G1 X49.324 Y131.19 E30.23952
G1 X48.756 Y130.671 E30.2779
G1 X48.294 Y130.156 E30.31242
G1 X47.856 Y129.62 E30.34695
G1 X47.401 Y129 E30.38532
G1 X47.061 Y128.429 E30.41848
G1 X46.74 Y127.829 E30.45242
G1 X46.413 Y127.133 E30.49079
G1 X46.182 Y126.482 E30.52525
G1 X45.984 Y125.828 E30.55934
G1 X45.8 Y125.082 E30.59768
G1 X45.702 Y124.406 E30.63175
G1 X45.635 Y123.723 E30.66599
G1 X45.6 Y123.001 E30.70206
G1 X45.601 Y76.993 E32.9974
G1 X45.637 Y76.263 E33.03387
G1 X45.705 Y75.577 E33.06826
G1 X45.821 Y74.817 E33.10662
G1 X45.989 Y74.155 E33.14069
G1 X46.185 Y73.51 E33.17432
G1 X46.446 Y72.787 E33.21267
G1 X46.749 Y72.155 E33.24764
G1 X47.08 Y71.54 E33.28248
G1 X47.479 Y70.882 E33.32087
G1 X47.878 Y70.35 E33.35405
G1 X48.306 Y69.829 E33.38769
G1 X48.824 Y69.261 E33.42604
G1 X49.34 Y68.797 E33.46066
G1 X49.877 Y68.358 E33.49527
G0 F3600 X50.131 Y68.668
G1 F1800 X50.734 Y68.226 E33.53257
G1 X51.255 Y67.917 E33.56279
G1 X51.856 Y67.595 E33.5968
G1 X52.533 Y67.277 E33.63412
G1 X53.134 Y67.065 E33.66592
G1 X53.788 Y66.867 E33.70001
G1 X54.514 Y66.689 E33.7373
G1 X55.135 Y66.6 E33.7686
G1 X55.82 Y66.533 E33.80294
G1 X56.501 Y66.5 E33.83695
G1 X143.499 Y66.5 E38.1773
G1 X144.193 Y66.534 E38.21196
G1 X144.886 Y66.603 E38.24671
G1 X145.625 Y66.717 E38.28401
G1 X146.224 Y66.871 E38.31487
G1 X146.87 Y67.067 E38.34855
G1 X147.574 Y67.322 E38.38591
G1 X148.156 Y67.601 E38.41811
G1 X148.771 Y67.932 E38.45295
G1 X149.409 Y68.321 E38.49023
G1 X149.896 Y68.687 E38.52062
G1 X150.417 Y69.115 E38.55426
G1 X150.969 Y69.62 E38.59159
G1 X151.393 Y70.094 E38.62332
G1 X151.832 Y70.631 E38.65792
G1 X152.274 Y71.234 E38.69522
G1 X152.583 Y71.755 E38.72544
G1 X152.905 Y72.356 E38.75946
G1 X153.223 Y73.033 E38.79677
G1 X153.434 Y73.631 E38.82841
G1 X153.632 Y74.284 E38.86245
G1 X153.81 Y75.01 E38.89975
G1 X153.9 Y75.633 E38.93115
G1 X153.967 Y76.317 E38.96544
G1 X154 Y76.999 E38.9995
G1 X153.999 Y123.007 E41.29485
G1 X153.965 Y123.698 E41.32937
G1 X153.897 Y124.383 E41.36371
G1 X153.783 Y125.123 E41.40106
G1 X153.629 Y125.724 E41.43202
G1 X153.433 Y126.37 E41.4657
G1 X153.178 Y127.074 E41.50305
G1 X152.901 Y127.652 E41.53503
G1 X152.571 Y128.266 E41.56981
G1 X152.182 Y128.905 E41.60713
G1 X151.813 Y129.397 E41.63781
G1 X151.384 Y129.919 E41.67152
G1 X150.879 Y130.47 E41.70881
G1 X150.406 Y130.893 E41.74047
G1 X149.869 Y131.332 E41.77507
G1 X149.266 Y131.774 E41.81237
G1 X148.745 Y132.083 E41.84259
G1 X148.144 Y132.405 E41.87661
G1 X147.467 Y132.723 E41.91392
G1 X146.866 Y132.935 E41.94572
G1 X146.212 Y133.133 E41.97981
G1 X145.486 Y133.311 E42.0171
G1 X144.865 Y133.4 E42.0484
G1 X144.18 Y133.467 E42.08274
G1 X143.499 Y133.5 E42.11675
G1 X56.493 Y133.499 E46.4575
G1 X55.802 Y133.465 E46.49202
G1 X55.117 Y133.397 E46.52636
G1 X54.377 Y133.283 E46.56371
G1 X53.776 Y133.129 E46.59467
G1 X53.13 Y132.933 E46.62835
G1 X52.426 Y132.678 E46.6657
G1 X51.844 Y132.399 E46.6979
G1 X51.229 Y132.068 E46.73275
G1 X50.591 Y131.679 E46.77003
G1 X50.101 Y131.311 E46.8006
G1 X49.578 Y130.881 E46.83438
G1 X49.027 Y130.376 E46.87167
G1 X48.604 Y129.903 E46.90333
G1 X48.166 Y129.367 E46.93786
G1 X47.724 Y128.764 E46.97516
G1 X47.414 Y128.24 E47.00553
G1 X47.093 Y127.64 E47.03948
G1 X46.776 Y126.963 E47.07678
G1 X46.565 Y126.366 E47.10837
G1 X46.367 Y125.712 E47.14246
G1 X46.189 Y124.986 E47.17975
G1 X46.1 Y124.367 E47.21095
G1 X46.033 Y123.684 E47.24519
G1 X46 Y123.001 E47.27931
G1 X46.001 Y76.993 E49.57465
G1 X46.035 Y76.303 E49.60912
G1 X46.103 Y75.617 E49.64351
G1 X46.217 Y74.877 E49.68087
G1 X46.371 Y74.272 E49.71201
G1 X46.567 Y73.627 E49.74564
G1 X46.823 Y72.924 E49.78297
G1 X47.101 Y72.344 E49.81506
G1 X47.432 Y71.729 E49.8499
G1 X47.821 Y71.091 E49.88718
G1 X48.187 Y70.604 E49.91758
G1 X48.615 Y70.083 E49.95121
G1 X49.12 Y69.531 E49.98854
G1 X49.594 Y69.107 E50.02027
G1 X50.131 Y68.668 E50.05487
G0 F3600 X50.384 Y68.977
G1 F1800 X50.971 Y68.549 E50.09112
G1 X51.444 Y68.269 E50.11854
G1 X52.045 Y67.947 E50.15256
G1 X52.703 Y67.64 E50.18878
G1 X53.25 Y67.448 E50.2177
G1 X53.904 Y67.25 E50.25179
G1 X54.609 Y67.078 E50.288
G1 X55.174 Y66.998 E50.31647
G1 X55.859 Y66.931 E50.3508
G1 X56.501 Y66.9 E50.38287
G1 X143.499 Y66.9 E54.72322
G1 X144.153 Y66.932 E54.75589
G1 X144.846 Y67.001 E54.79063
G1 X145.564 Y67.113 E54.82689
G1 X146.108 Y67.253 E54.85491
G1 X146.754 Y67.449 E54.88859
G1 X147.437 Y67.698 E54.92486
G1 X147.966 Y67.953 E54.95416
G1 X148.581 Y68.284 E54.989
G1 X149.201 Y68.663 E55.02525
G1 X149.642 Y68.996 E55.05282
G1 X150.163 Y69.424 E55.08646
G1 X150.699 Y69.915 E55.12273
G1 X151.084 Y70.347 E55.1516
G1 X151.523 Y70.884 E55.1862
G1 X151.951 Y71.471 E55.22245
G1 X152.231 Y71.944 E55.24987
G1 X152.553 Y72.545 E55.28388
G1 X152.86 Y73.203 E55.32011
G1 X153.051 Y73.747 E55.34887
G1 X153.249 Y74.4 E55.38292
G1 X153.421 Y75.106 E55.41917
G1 X153.502 Y75.672 E55.4477
G1 X153.569 Y76.356 E55.48198
G1 X153.6 Y76.999 E55.5141
G1 X153.599 Y123.007 E57.80945
G1 X153.567 Y123.659 E57.84202
G1 X153.499 Y124.344 E57.87636
G1 X153.387 Y125.062 E57.91261
G1 X153.247 Y125.608 E57.94073
G1 X153.051 Y126.254 E57.97441
G1 X152.802 Y126.937 E58.01068
G1 X152.549 Y127.463 E58.0398
G1 X152.219 Y128.077 E58.07458
G1 X151.84 Y128.696 E58.11079
G1 X151.504 Y129.143 E58.13869
G1 X151.075 Y129.665 E58.1724
G1 X150.584 Y130.199 E58.20859
G1 X150.153 Y130.584 E58.23742
G1 X149.616 Y131.023 E58.27203
G1 X149.029 Y131.451 E58.30827
G1 X148.556 Y131.731 E58.33569
G1 X147.955 Y132.053 E58.36971
G1 X147.297 Y132.36 E58.40593
G1 X146.75 Y132.552 E58.43486
G1 X146.096 Y132.75 E58.46895
G1 X145.391 Y132.922 E58.50515
G1 X144.826 Y133.002 E58.53362
G1 X144.141 Y133.069 E58.56796
G1 X143.499 Y133.1 E58.60003
G1 X56.493 Y133.099 E62.94077
G1 X55.841 Y133.067 E62.97334
G1 X55.156 Y132.999 E63.00768
G1 X54.438 Y132.887 E63.04394
G1 X53.892 Y132.747 E63.07206
G1 X53.246 Y132.551 E63.10574
G1 X52.563 Y132.302 E63.14201
G1 X52.034 Y132.047 E63.17131
G1 X51.419 Y131.716 E63.20615
G1 X50.799 Y131.337 E63.2424
G1 X50.355 Y131.002 E63.27015
G1 X49.832 Y130.572 E63.30393
G1 X49.298 Y130.081 E63.34012
G1 X48.913 Y129.65 E63.36895
G1 X48.475 Y129.114 E63.40349
G1 X48.047 Y128.527 E63.43973
G1 X47.767 Y128.051 E63.46728
G1 X47.446 Y127.451 E63.50123
G1 X47.139 Y126.793 E63.53746
G1 X46.948 Y126.25 E63.56618
G1 X46.75 Y125.596 E63.60027
G1 X46.578 Y124.891 E63.63647
G1 X46.499 Y124.328 E63.66483
G1 X46.432 Y123.645 E63.69907
G1 X46.4 Y123.001 E63.73124
G1 X46.401 Y76.993 E66.02659
G1 X46.433 Y76.342 E66.05911
G1 X46.501 Y75.656 E66.0935
G1 X46.613 Y74.938 E66.12975
G1 X46.754 Y74.388 E66.15808
G1 X46.95 Y73.743 E66.19171
G1 X47.199 Y73.061 E66.22794
G1 X47.453 Y72.534 E66.25712
G1 X47.784 Y71.919 E66.29197
G1 X48.163 Y71.299 E66.32822
G1 X48.496 Y70.858 E66.35579
G1 X48.924 Y70.337 E66.38943
G1 X49.415 Y69.801 E66.42569
G1 X49.847 Y69.416 E66.45456
G1 X50.384 Y68.977 E66.48917
G0 F3600 X50.637 Y69.287
G1 F1800 X51.206 Y68.873 E66.52427
G1 X51.633 Y68.622 E66.54898
G1 X52.234 Y68.3 E66.583
G1 X52.872 Y68.003 E66.61811
G1 X53.365 Y67.831 E66.64416
G1 X54.019 Y67.633 E66.67825
G1 X54.704 Y67.468 E66.7134
G1 X55.212 Y67.396 E66.739
G1 X55.897 Y67.329 E66.77334
G1 X56.501 Y67.3 E66.80351
G1 X143.499 Y67.3 E71.14385
G1 X144.113 Y67.331 E71.17453
G1 X144.806 Y67.4 E71.20927
G1 X145.502 Y67.509 E71.24442
G1 X145.992 Y67.636 E71.26967
G1 X146.638 Y67.832 E71.30335
G1 X147.299 Y68.074 E71.33847
G1 X147.776 Y68.306 E71.36493
G1 X148.391 Y68.637 E71.39978
G1 X148.991 Y69.005 E71.43489
G1 X149.389 Y69.305 E71.45976
G1 X149.91 Y69.733 E71.4934
G1 X150.427 Y70.21 E71.52849
G1 X150.774 Y70.6 E71.55454
G1 X151.213 Y71.137 E71.58914
G1 X151.627 Y71.706 E71.62425
G1 X151.878 Y72.133 E71.64896
G1 X152.2 Y72.734 E71.68297
G1 X152.497 Y73.372 E71.71808
G1 X152.668 Y73.863 E71.74402
G1 X152.866 Y74.516 E71.77807
G1 X153.032 Y75.2 E71.81318
G1 X153.103 Y75.711 E71.83892
G1 X153.17 Y76.395 E71.87321
G1 X153.2 Y76.999 E71.90338
G1 X153.199 Y123.007 E74.19873
G1 X153.169 Y123.619 E74.2293
G1 X153.101 Y124.304 E74.26364
G1 X152.991 Y125 E74.29879
G1 X152.864 Y125.492 E74.32414
G1 X152.668 Y126.138 E74.35782
G1 X152.426 Y126.799 E74.39294
G1 X152.196 Y127.273 E74.41923
G1 X151.866 Y127.887 E74.454
G1 X151.498 Y128.487 E74.48912
G1 X151.195 Y128.889 E74.51423
G1 X150.766 Y129.411 E74.54794
G1 X150.289 Y129.928 E74.58304
G1 X149.9 Y130.274 E74.60901
G1 X149.363 Y130.713 E74.64362
G1 X148.794 Y131.127 E74.67872
G1 X148.367 Y131.378 E74.70343
G1 X147.766 Y131.7 E74.73745
G1 X147.128 Y131.997 E74.77256
G1 X146.635 Y132.169 E74.79861
G1 X145.981 Y132.367 E74.8327
G1 X145.296 Y132.532 E74.86785
G1 X144.788 Y132.604 E74.89345
G1 X144.103 Y132.671 E74.92779
G1 X143.499 Y132.7 E74.95796
G1 X56.493 Y132.699 E79.2987
G1 X55.881 Y132.669 E79.32927
G1 X55.196 Y132.601 E79.36362
G1 X54.5 Y132.491 E79.39877
G1 X54.008 Y132.364 E79.42412
G1 X53.362 Y132.168 E79.4578
G1 X52.701 Y131.926 E79.49292
G1 X52.224 Y131.694 E79.51938
G1 X51.609 Y131.363 E79.55423
G1 X51.009 Y130.995 E79.58934
G1 X50.609 Y130.693 E79.61435
G1 X50.086 Y130.263 E79.64813
G1 X49.569 Y129.786 E79.68322
G1 X49.223 Y129.397 E79.70919
G1 X48.785 Y128.861 E79.74373
G1 X48.371 Y128.292 E79.77883
G1 X48.119 Y127.863 E79.80366
G1 X47.798 Y127.263 E79.83761
G1 X47.502 Y126.624 E79.87274
G1 X47.331 Y126.135 E79.89858
G1 X47.133 Y125.481 E79.93267
G1 X46.968 Y124.796 E79.96783
G1 X46.897 Y124.289 E79.99337
G1 X46.83 Y123.606 E80.02761
G1 X46.8 Y123.001 E80.05783
G1 X46.801 Y76.993 E82.35318
G1 X46.831 Y76.381 E82.38375
G1 X46.899 Y75.695 E82.41814
G1 X47.008 Y75 E82.45324
G1 X47.137 Y74.504 E82.4788
G1 X47.333 Y73.859 E82.51244
G1 X47.575 Y73.198 E82.54755
G1 X47.806 Y72.724 E82.57386
G1 X48.137 Y72.109 E82.60871
G1 X48.505 Y71.509 E82.64382
G1 X48.805 Y71.111 E82.66869
G1 X49.233 Y70.59 E82.70233
G1 X49.71 Y70.073 E82.73742
G1 X50.1 Y69.726 E82.76346
G1 X50.637 Y69.287 E82.79807
G0 F3600 X50.89 Y69.597
G1 F1800 X51.442 Y69.197 E82.83208
G1 X51.822 Y68.975 E82.85403
G1 X52.423 Y68.653 E82.88805
G1 X53.041 Y68.367 E82.92202
G1 X53.481 Y68.214 E82.94527
G1 X54.135 Y68.016 E82.97936
G1 X54.797 Y67.857 E83.01332
G1 X55.251 Y67.795 E83.03618
G1 X55.936 Y67.728 E83.07052
G1 X56.501 Y67.7 E83.09874
G1 X143.499 Y67.7 E87.43909
G1 X144.074 Y67.729 E87.46781
G1 X144.767 Y67.798 E87.50256
G1 X145.439 Y67.905 E87.53651
G1 X145.876 Y68.019 E87.55904
G1 X146.522 Y68.215 E87.59272
G1 X147.161 Y68.45 E87.62669
G1 X147.587 Y68.658 E87.65034
G1 X148.202 Y68.989 E87.68518
G1 X148.781 Y69.346 E87.71912
G1 X149.135 Y69.614 E87.74127
G1 X149.656 Y70.042 E87.77491
