;FLAVOR:Marlin
;TIME:8947
;Filament used: 7.15638m
;Layer height: 0.3
;MINX:-50.6
;MINY:-30.1
;MINZ:0.3
;MAXX:50.6
;MAXY:30.1
;MAXZ:23.4
;Generated with Cura_SteamEngine 4.8.0
M140 S60
M105
M190 S60
M104 S200
M105
M109 S200
M82 ;absolute extrusion mode
G28 ;Home
G1 Z15.0 F6000 ;Move the platform down 15mm
;Prime the extruder
G92 E0
G1 F200 E3
G92 E0
M420 S1
G92 E0
G92 E0
G1 F1500 E-6.5
;LAYER_COUNT:78
;LAYER:0
M107
G0 F3600 X-42.455 Y-30.1 Z0.3
;TYPE:SKIRT
G1 F1500 E0
G1 F900 X42.845 Y-30.1 E4.25563
G1 X43.543 Y-30.09 E4.29046
G1 X44.133 Y-30.05 E4.31996
G1 X44.594 Y-29.998 E4.34311
G1 X45.177 Y-29.883 E4.37276
G1 X45.932 Y-29.654 E4.41212
G1 X46.487 Y-29.423 E4.44211
G1 X47.191 Y-29.045 E4.48197
G1 X47.664 Y-28.731 E4.5103
G1 X48.285 Y-28.224 E4.55029
G1 X48.722 Y-27.786 E4.58116
G1 X49.219 Y-27.176 E4.62042
G1 X49.504 Y-26.759 E4.64562
G1 X49.932 Y-25.97 E4.6904
G1 X50.161 Y-25.414 E4.7204
G1 X50.382 Y-24.68 E4.75864
G1 X50.508 Y-24.029 E4.79172
G1 X50.561 Y-23.505 E4.818
G1 X50.574 Y-23.263 E4.83009
G1 X50.6 Y-21.955 E4.89536
G1 X50.599 Y22.323 E7.1044
G1 X50.589 Y23.048 E7.14057
G1 X50.55 Y23.636 E7.16997
G1 X50.5 Y24.084 E7.19246
G1 X50.386 Y24.665 E7.222
G1 X50.154 Y25.43 E7.26188
G1 X49.921 Y25.993 E7.29228
G1 X49.533 Y26.71 E7.33295
G1 X49.232 Y27.163 E7.36009
G1 X48.733 Y27.776 E7.39952
G1 X48.647 Y27.874 E7.40603
G1 X48.281 Y28.227 E7.4314
G1 X47.682 Y28.716 E7.46997
G1 X47.174 Y29.056 E7.50047
G1 X46.512 Y29.412 E7.53797
G1 X45.906 Y29.663 E7.5707
G1 X45.154 Y29.888 E7.60986
G1 X44.587 Y30 E7.63869
G1 X43.997 Y30.062 E7.66829
G1 X43.761 Y30.074 E7.68008
G1 X42.456 Y30.1 E7.7452
G1 X-42.852 Y30.099 E12.00123
G1 X-43.551 Y30.089 E12.03611
G1 X-44.158 Y30.047 E12.06646
G1 X-44.626 Y29.992 E12.08997
G1 X-45.19 Y29.88 E12.11866
G1 X-45.936 Y29.653 E12.15756
G1 X-46.493 Y29.421 E12.18767
G1 X-47.191 Y29.045 E12.22722
G1 X-47.661 Y28.734 E12.25534
G1 X-48.285 Y28.224 E12.29554
G1 X-48.337 Y28.179 E12.29897
G1 X-48.726 Y27.781 E12.32674
G1 X-49.225 Y27.17 E12.3661
G1 X-49.521 Y26.731 E12.39251
G1 X-49.933 Y25.967 E12.43582
G1 X-50.162 Y25.411 E12.46582
G1 X-50.389 Y24.651 E12.50539
G1 X-50.5 Y24.087 E12.53407
G1 X-50.561 Y23.506 E12.56321
G1 X-50.574 Y23.264 E12.5753
G1 X-50.6 Y21.955 E12.64062
G1 X-50.599 Y-22.381 E14.85255
G1 X-50.589 Y-23.061 E14.88648
G1 X-50.549 Y-23.646 E14.91574
G1 X-50.496 Y-24.109 E14.93899
G1 X-50.38 Y-24.691 E14.96859
G1 X-50.148 Y-25.447 E15.00805
G1 X-49.918 Y-25.995 E15.0377
G1 X-49.547 Y-26.687 E15.07687
G1 X-49.212 Y-27.19 E15.10702
G1 X-48.719 Y-27.791 E15.1458
G1 X-48.278 Y-28.23 E15.17685
G1 X-47.683 Y-28.715 E15.21514
G1 X-47.238 Y-29.018 E15.242
G1 X-46.471 Y-29.431 E15.28546
G1 X-45.908 Y-29.663 E15.31584
G1 X-45.151 Y-29.889 E15.35526
G1 X-44.587 Y-30 E15.38394
G1 X-43.997 Y-30.062 E15.41353
G1 X-43.761 Y-30.074 E15.42532
G1 X-42.455 Y-30.1 E15.49049
G0 F3600 X-42.455 Y-29.7
G1 F900 X42.839 Y-29.7 E19.74583
G1 X43.537 Y-29.69 E19.78065
G1 X44.088 Y-29.653 E19.8082
G1 X44.549 Y-29.601 E19.83135
G1 X45.068 Y-29.498 E19.85775
G1 X45.81 Y-29.273 E19.89643
G1 X46.304 Y-29.068 E19.92311
G1 X46.997 Y-28.695 E19.96238
G1 X47.418 Y-28.416 E19.98758
G1 X48.027 Y-27.918 E20.02682
G1 X48.415 Y-27.529 E20.05423
G1 X48.906 Y-26.928 E20.09295
G1 X49.295 Y-26.324 E20.1288
G1 X49.576 Y-25.787 E20.15903
G1 X49.78 Y-25.293 E20.1857
G1 X49.997 Y-24.57 E20.22336
G1 X50.11 Y-23.985 E20.25308
G1 X50.163 Y-23.47 E20.27891
G1 X50.174 Y-23.255 E20.28965
G1 X50.2 Y-21.955 E20.35452
G1 X50.199 Y22.317 E22.56326
G1 X50.189 Y23.042 E22.59944
G1 X50.152 Y23.592 E22.62694
G1 X50.102 Y24.04 E22.64943
G1 X50.001 Y24.556 E22.67566
G1 X49.773 Y25.309 E22.71491
G1 X49.566 Y25.809 E22.74191
G1 X49.184 Y26.514 E22.78191
G1 X48.74 Y27.144 E22.82036
G1 X48.359 Y27.597 E22.8499
G1 X47.749 Y28.151 E22.89101
G1 X47.166 Y28.594 E22.92754
G1 X46.685 Y28.871 E22.95523
G1 X46.113 Y29.158 E22.98716
G1 X45.492 Y29.375 E23.01998
G1 X45.045 Y29.503 E23.04317
G1 X44.541 Y29.603 E23.06881
G1 X43.963 Y29.663 E23.0978
G1 X43.753 Y29.674 E23.10829
G1 X42.456 Y29.7 E23.17301
G1 X-42.847 Y29.699 E27.4288
G1 X-43.546 Y29.689 E27.46367
G1 X-44.111 Y29.65 E27.49193
G1 X-44.579 Y29.595 E27.51544
G1 X-45.081 Y29.495 E27.54097
G1 X-45.814 Y29.272 E27.5792
G1 X-46.309 Y29.066 E27.60595
G1 X-46.997 Y28.695 E27.64494
G1 X-47.414 Y28.419 E27.66989
G1 X-48.026 Y27.919 E27.70932
G1 X-48.419 Y27.524 E27.73712
G1 X-48.911 Y26.922 E27.77591
G1 X-49.306 Y26.304 E27.8125
G1 X-49.577 Y25.784 E27.84175
G1 X-49.781 Y25.29 E27.86842
G1 X-50.004 Y24.543 E27.90731
G1 X-50.103 Y24.041 E27.93284
G1 X-50.163 Y23.471 E27.96143
G1 X-50.174 Y23.256 E27.97217
G1 X-50.2 Y21.955 E28.03709
G1 X-50.199 Y-22.375 E30.24873
G1 X-50.189 Y-23.055 E30.28265
G1 X-50.151 Y-23.601 E30.30996
G1 X-50.098 Y-24.064 E30.33321
G1 X-49.995 Y-24.581 E30.35951
G1 X-49.767 Y-25.324 E30.39829
G1 X-49.563 Y-25.811 E30.42463
G1 X-49.197 Y-26.493 E30.46324
G1 X-48.892 Y-26.95 E30.49065
G1 X-48.414 Y-27.533 E30.52827
G1 X-48.021 Y-27.923 E30.55589
G1 X-47.435 Y-28.402 E30.59365
G1 X-46.805 Y-28.805 E30.63096
G1 X-46.288 Y-29.075 E30.66006
G1 X-45.788 Y-29.282 E30.68706
G1 X-45.043 Y-29.504 E30.72584
G1 X-44.541 Y-29.603 E30.75137
G1 X-43.963 Y-29.663 E30.78036
G1 X-43.753 Y-29.674 E30.79085
G1 X-42.455 Y-29.7 E30.85562
G1 F1500 E24.35562
;MESH:c05bc734-abc4-4426-bbef-dc7ac8a0317c.stl
G0 F3600 X-42.455 Y-27.165
G0 X-42.455 Y-25.88
G0 X44.054 Y-25.742
G0 X44.073 Y-25.84
;TYPE:WALL-INNER
G1 F1500 E30.85562
G1 F900 X44.61 Y-25.676 E30.88363
G1 X45.115 Y-25.405 E30.91223
G1 X45.548 Y-25.05 E30.94016
G1 X45.913 Y-24.603 E30.96895
G1 X46.178 Y-24.108 E30.99696
G1 X46.342 Y-23.566 E31.02522
G1 X46.4 Y-22.972 E31.05499
G1 X46.399 Y22.979 E33.3475
G1 X46.34 Y23.572 E33.37723
G1 X46.176 Y24.11 E33.40529
G1 X45.905 Y24.615 E33.43388
G1 X45.55 Y25.048 E33.46182
G1 X45.103 Y25.413 E33.49061
G1 X44.608 Y25.678 E33.51862
G1 X44.066 Y25.842 E33.54687
G1 X43.472 Y25.9 E33.57665
G1 X-43.479 Y25.899 E37.91465
G1 X-44.072 Y25.84 E37.94438
G1 X-44.61 Y25.676 E37.97244
G1 X-45.114 Y25.406 E38.00096
G1 X-45.55 Y25.048 E38.02911
G1 X-45.916 Y24.599 E38.05801
G1 X-46.177 Y24.112 E38.08558
G1 X-46.342 Y23.566 E38.11403
G1 X-46.4 Y22.97 E38.14391
G1 X-46.399 Y-22.98 E40.43636
G1 X-46.34 Y-23.573 E40.46609
G1 X-46.176 Y-24.11 E40.49411
G1 X-45.905 Y-24.615 E40.5227
G1 X-45.55 Y-25.048 E40.55063
G1 X-45.103 Y-25.413 E40.57943
G1 X-44.608 Y-25.678 E40.60744
G1 X-44.066 Y-25.842 E40.63569
G1 X-43.471 Y-25.9 E40.66551
G1 X43.47 Y-25.9 E45.00302
G1 X44.073 Y-25.84 E45.03325
G0 F3600 X44.154 Y-26.234
;TYPE:WALL-OUTER
G1 F900 X44.76 Y-26.049 E45.06486
G1 X45.337 Y-25.739 E45.09754
G1 X45.835 Y-25.331 E45.12966
G1 X46.248 Y-24.825 E45.16224
G1 X46.549 Y-24.263 E45.19405
G1 X46.736 Y-23.646 E45.22622
G1 X46.8 Y-22.99 E45.2591
G1 X46.799 Y22.998 E47.55345
G1 X46.734 Y23.654 E47.58634
G1 X46.549 Y24.26 E47.61795
G1 X46.239 Y24.837 E47.65063
G1 X45.831 Y25.335 E47.68275
G1 X45.325 Y25.748 E47.71533
G1 X44.763 Y26.049 E47.74714
G1 X44.146 Y26.236 E47.7793
G1 X43.49 Y26.3 E47.81219
G1 X-43.498 Y26.299 E52.15204
G1 X-44.154 Y26.234 E52.18492
G1 X-44.76 Y26.049 E52.21653
G1 X-45.339 Y25.738 E52.24932
G1 X-45.835 Y25.331 E52.28133
G1 X-46.248 Y24.824 E52.31396
G1 X-46.549 Y24.263 E52.34572
G1 X-46.736 Y23.646 E52.37789
G1 X-46.8 Y22.988 E52.41087
G1 X-46.799 Y-23 E54.70522
G1 X-46.734 Y-23.654 E54.73801
G1 X-46.549 Y-24.26 E54.76962
G1 X-46.239 Y-24.837 E54.8023
G1 X-45.831 Y-25.335 E54.83442
G1 X-45.325 Y-25.748 E54.867
G1 X-44.763 Y-26.049 E54.89881
G1 X-44.146 Y-26.236 E54.93097
G1 X-43.49 Y-26.3 E54.96386
G1 X43.49 Y-26.3 E59.30331
G1 X44.154 Y-26.234 E59.3366
G0 F3600 X44.345 Y-26.176
G0 X43.995 Y-25.456
;TYPE:SKIN
G1 F900 X44.457 Y-25.315 E59.3607
G1 X44.899 Y-25.078 E59.38572
G1 X45.273 Y-24.771 E59.40986
G1 X45.589 Y-24.385 E59.43475
G1 X45.816 Y-23.961 E59.45874
G1 X45.958 Y-23.49 E59.48328
G1 X46.01 Y-22.955 E59.5101
G1 X46.009 Y22.959 E61.80076
G1 X45.956 Y23.495 E61.82763
G1 X45.815 Y23.957 E61.85173
G1 X45.578 Y24.399 E61.87675
G1 X45.271 Y24.773 E61.90089
G1 X44.885 Y25.089 E61.92578
G1 X44.461 Y25.316 E61.94977
G1 X43.99 Y25.458 E61.97432
G1 X43.455 Y25.51 E62.00113
G1 X-43.46 Y25.509 E66.33734
G1 X-43.997 Y25.456 E66.36426
G1 X-44.462 Y25.314 E66.38852
G1 X-44.893 Y25.083 E66.41291
G1 X-45.275 Y24.769 E66.43758
G1 X-45.592 Y24.381 E66.46258
G1 X-45.815 Y23.965 E66.48613
G1 X-45.958 Y23.491 E66.51083
G1 X-46.01 Y22.95 E66.53794
G1 X-46.009 Y-22.963 E68.82855
G1 X-45.956 Y-23.495 E68.85523
G1 X-45.815 Y-23.957 E68.87933
G1 X-45.578 Y-24.399 E68.90435
G1 X-45.271 Y-24.773 E68.92849
G1 X-44.885 Y-25.089 E68.95337
G1 X-44.461 Y-25.316 E68.97737
G1 X-43.99 Y-25.458 E69.00191
G1 X-43.454 Y-25.51 E69.02878
G1 X43.451 Y-25.51 E73.36449
G1 X43.995 Y-25.456 E73.39176
G0 F3600 X44.482 Y-25.096
G1 F900 X45.606 Y-23.972 E73.47106
G0 F3600 X45.804 Y-23.209
G1 F900 X43.71 Y-25.303 E73.61881
G0 F3600 X43.117 Y-25.329
G1 F900 X45.829 Y-22.618 E73.81012
G0 F3600 X45.829 Y-22.053
G1 F900 X42.552 Y-25.329 E74.04129
G0 F3600 X41.986 Y-25.329
G1 F900 X45.829 Y-21.487 E74.3124
G0 F3600 X45.829 Y-20.921
G1 F900 X41.42 Y-25.329 E74.62345
G0 F3600 X40.855 Y-25.329
G1 F900 X45.829 Y-20.356 E74.97435
G0 F3600 X45.829 Y-19.79
G1 F900 X40.289 Y-25.329 E75.36519
G0 F3600 X39.723 Y-25.329
G1 F900 X45.829 Y-19.224 E75.79597
G0 F3600 X45.829 Y-18.659
G1 F900 X39.158 Y-25.329 E76.26661
G0 F3600 X38.592 Y-25.329
G1 F900 X45.829 Y-18.093 E76.77718
G0 F3600 X45.829 Y-17.527
G1 F900 X38.026 Y-25.329 E77.32769
G0 F3600 X37.461 Y-25.329
G1 F900 X45.829 Y-16.962 E77.91807
G0 F3600 X45.829 Y-16.396
G1 F900 X36.895 Y-25.329 E78.54837
G0 F3600 X36.329 Y-25.329
G1 F900 X45.829 Y-15.83 E79.21861
G0 F3600 X45.829 Y-15.265
G1 F900 X35.764 Y-25.329 E79.92872
G0 F3600 X35.198 Y-25.329
G1 F900 X45.829 Y-14.699 E80.67876
G0 F3600 X45.829 Y-14.133
G1 F900 X34.632 Y-25.329 E81.46873
G0 F3600 X34.066 Y-25.329
G1 F900 X45.829 Y-13.567 E82.29864
G0 F3600 X45.829 Y-13.002
G1 F900 X33.501 Y-25.329 E83.16841
G0 F3600 X32.935 Y-25.329
G1 F900 X45.829 Y-12.436 E84.07812
G0 F3600 X45.829 Y-11.87
G1 F900 X32.369 Y-25.329 E85.02776
G0 F3600 X31.804 Y-25.329
G1 F900 X45.829 Y-11.305 E86.01726
G0 F3600 X45.829 Y-10.739
G1 F900 X31.238 Y-25.329 E87.0467
G0 F3600 X30.672 Y-25.329
G1 F900 X45.829 Y-10.173 E88.11607
G0 F3600 X45.829 Y-9.608
G1 F900 X30.107 Y-25.329 E89.22531
G0 F3600 X29.541 Y-25.329
G1 F900 X45.829 Y-9.042 E90.37448
G0 F3600 X45.829 Y-8.476
G1 F900 X28.975 Y-25.329 E91.56359
G0 F3600 X28.41 Y-25.329
G1 F900 X45.829 Y-7.911 E92.79256
G0 F3600 X45.829 Y-7.345
G1 F900 X27.844 Y-25.329 E94.06146
G0 F3600 X27.278 Y-25.329
G1 F900 X45.829 Y-6.779 E95.3703
G0 F3600 X45.829 Y-6.214
G1 F900 X26.713 Y-25.329 E96.719
G0 F3600 X26.147 Y-25.329
G1 F900 X45.829 Y-5.648 E98.10763
G0 F3600 X45.829 Y-5.082
G1 F900 X25.581 Y-25.329 E99.53621
G0 F3600 X25.016 Y-25.329
G1 F900 X45.829 Y-4.516 E101.00467
G0 F3600 X45.829 Y-3.951
G1 F900 X24.45 Y-25.329 E102.51304
G0 F3600 X23.884 Y-25.329
G1 F900 X45.829 Y-3.385 E104.06135
G0 F3600 X45.829 Y-2.819
G1 F900 X23.318 Y-25.329 E105.64958
G0 F3600 X22.753 Y-25.329
G1 F900 X45.829 Y-2.254 E107.27768
G0 F3600 X45.829 Y-1.688
G1 F900 X22.187 Y-25.329 E108.94572
G0 F3600 X21.621 Y-25.329
G1 F900 X45.829 Y-1.122 E110.65369
G0 F3600 X45.829 Y-.557
G1 F900 X21.056 Y-25.329 E112.40152
G0 F3600 X20.49 Y-25.329
G1 F900 X45.829 Y0.008 E114.18926
G0 F3600 X45.829 Y0.574
G1 F900 X19.924 Y-25.329 E116.01692
G0 F3600 X19.359 Y-25.329
G1 F900 X45.829 Y1.139 E117.88445
G0 F3600 X45.829 Y1.705
G1 F900 X18.793 Y-25.329 E119.79192
G0 F3600 X18.227 Y-25.329
G1 F900 X45.829 Y2.271 E121.73932
G0 F3600 X45.829 Y2.836
G1 F900 X17.662 Y-25.329 E123.72658
G0 F3600 X17.096 Y-25.329
G1 F900 X45.829 Y3.402 E125.75378
G0 F3600 X45.829 Y3.968
G1 F900 X16.53 Y-25.329 E127.82091
G0 F3600 X15.965 Y-25.329
G1 F900 X45.829 Y4.533 E129.92791
G0 F3600 X45.829 Y5.099
G1 F900 X15.399 Y-25.329 E132.07484
G0 F3600 X14.833 Y-25.329
G1 F900 X45.829 Y5.665 E134.2617
G0 F3600 X45.829 Y6.231
G1 F900 X14.268 Y-25.329 E136.48847
G0 F3600 X13.702 Y-25.329
G1 F900 X45.829 Y6.796 E138.75513
G0 F3600 X45.829 Y7.362
G1 F900 X13.136 Y-25.329 E141.06173
G0 F3600 X12.57 Y-25.329
G1 F900 X45.829 Y7.928 E143.40826
G0 F3600 X45.829 Y8.493
G1 F900 X12.005 Y-25.329 E145.79465
G0 F3600 X11.439 Y-25.329
G1 F900 X45.829 Y9.059 E148.22098
G0 F3600 X45.829 Y9.625
G1 F900 X10.873 Y-25.329 E150.68725
G0 F3600 X10.308 Y-25.329
G1 F900 X45.829 Y10.19 E153.19338
G0 F3600 X45.829 Y10.756
G1 F900 X9.742 Y-25.329 E155.73944
G0 F3600 X9.176 Y-25.329
G1 F900 X45.829 Y11.322 E158.32543
G0 F3600 X45.829 Y11.887
G1 F900 X8.611 Y-25.329 E160.9513
G0 F3600 X8.045 Y-25.329
G1 F900 X45.829 Y12.453 E163.61709
G0 F3600 X45.829 Y13.019
G1 F900 X7.479 Y-25.329 E166.32282
G0 F3600 X6.914 Y-25.329
G1 F900 X45.829 Y13.584 E169.06841
G0 F3600 X45.829 Y14.15
G1 F900 X6.348 Y-25.329 E171.85394
G0 F3600 X5.782 Y-25.329
G1 F900 X45.829 Y14.716 E174.6794
G0 F3600 X45.829 Y15.281
G1 F900 X5.217 Y-25.329 E177.54473
G0 F3600 X4.651 Y-25.329
G1 F900 X45.829 Y15.847 E180.44999
G0 F3600 X45.829 Y16.413
G1 F900 X4.085 Y-25.329 E183.39518
G0 F3600 X3.519 Y-25.329
G1 F900 X45.829 Y16.979 E186.38031
G0 F3600 X45.829 Y17.544
G1 F900 X2.954 Y-25.329 E189.4053
G0 F3600 X2.388 Y-25.329
G1 F900 X45.829 Y18.11 E192.47023
G0 F3600 X45.829 Y18.676
G1 F900 X1.822 Y-25.329 E195.57509
G0 F3600 X1.257 Y-25.329
G1 F900 X45.829 Y19.241 E198.71981
G0 F3600 X45.829 Y19.807
G1 F900 X0.691 Y-25.329 E201.90447
G0 F3600 X0.125 Y-25.329
G1 F900 X45.829 Y20.373 E205.12907
G0 F3600 X45.829 Y20.938
G1 F900 X-.439 Y-25.329 E208.39349
G0 F3600 X-1.005 Y-25.329
G1 F900 X45.829 Y21.504 E211.69784
G0 F3600 X45.829 Y22.07
G1 F900 X-1.571 Y-25.329 E215.04213
G0 F3600 X-2.136 Y-25.329
G1 F900 X45.829 Y22.635 E218.42629
G0 F3600 X45.806 Y23.178
G1 F900 X-2.702 Y-25.329 E221.84876
G0 F3600 X-3.268 Y-25.329
G1 F900 X45.718 Y23.656 E225.30495
G0 F3600 X45.556 Y24.06
G1 F900 X-3.833 Y-25.329 E228.78961
G0 F3600 X-4.399 Y-25.329
G1 F900 X45.338 Y24.407 E232.29879
G0 F3600 X45.068 Y24.704
G1 F900 X-4.965 Y-25.329 E235.82888
G0 F3600 X-5.53 Y-25.329
G1 F900 X44.753 Y24.954 E239.37662
G0 F3600 X44.385 Y25.151
G1 F900 X-6.096 Y-25.329 E242.93829
G0 F3600 X-6.662 Y-25.329
G1 F900 X43.948 Y25.281 E246.5091
G0 F3600 X43.431 Y25.329
G1 F900 X-7.228 Y-25.329 E250.08333
G0 F3600 X-7.793 Y-25.329
G1 F900 X42.865 Y25.329 E253.65753
G0 F3600 X42.299 Y25.329
G1 F900 X-8.359 Y-25.329 E257.23172
G0 F3600 X-8.925 Y-25.329
G1 F900 X41.734 Y25.329 E260.80596
G0 F3600 X41.168 Y25.329
G1 F900 X-9.49 Y-25.329 E264.38015
G0 F3600 X-10.056 Y-25.329
G1 F900 X40.602 Y25.329 E267.95435
G0 F3600 X40.037 Y25.329
G1 F900 X-10.622 Y-25.329 E271.52858
G0 F3600 X-11.187 Y-25.329
G1 F900 X39.471 Y25.329 E275.10277
G0 F3600 X38.905 Y25.329
G1 F900 X-11.753 Y-25.329 E278.67697
G0 F3600 X-12.319 Y-25.329
G1 F900 X38.34 Y25.329 E282.2512
G0 F3600 X37.774 Y25.329
G1 F900 X-12.884 Y-25.329 E285.82539
G0 F3600 X-13.45 Y-25.329
G1 F900 X37.208 Y25.329 E289.39959
G0 F3600 X36.642 Y25.329
G1 F900 X-14.016 Y-25.329 E292.97379
G0 F3600 X-14.581 Y-25.329
G1 F900 X36.077 Y25.329 E296.54798
G0 F3600 X35.511 Y25.329
G1 F900 X-15.147 Y-25.329 E300.12218
G0 F3600 X-15.713 Y-25.329
G1 F900 X34.945 Y25.329 E303.69637
G0 F3600 X34.38 Y25.329
G1 F900 X-16.279 Y-25.329 E307.2706
G0 F3600 X-16.844 Y-25.329
G1 F900 X33.814 Y25.329 E310.8448
G0 F3600 X33.248 Y25.329
G1 F900 X-17.41 Y-25.329 E314.41899
G0 F3600 X-17.976 Y-25.329
G1 F900 X32.683 Y25.329 E317.99322
G0 F3600 X32.117 Y25.329
G1 F900 X-18.541 Y-25.329 E321.56742
G0 F3600 X-19.107 Y-25.329
G1 F900 X31.551 Y25.329 E325.14162
G0 F3600 X30.986 Y25.329
G1 F900 X-19.673 Y-25.329 E328.71585
G0 F3600 X-20.238 Y-25.329
G1 F900 X30.42 Y25.329 E332.29004
G0 F3600 X29.854 Y25.329
G1 F900 X-20.804 Y-25.329 E335.86424
G0 F3600 X-21.37 Y-25.329
G1 F900 X29.289 Y25.329 E339.43847
G0 F3600 X28.723 Y25.329
G1 F900 X-21.935 Y-25.329 E343.01266
G0 F3600 X-22.501 Y-25.329
G1 F900 X28.157 Y25.329 E346.58686
G0 F3600 X27.592 Y25.329
G1 F900 X-23.067 Y-25.329 E350.16109
