;FLAVOR:Marlin
;TIME:8381
;Filament used: 7.19211m
;Layer height: 0.2
;MINX:66.9
;MINY:87.4
;MINZ:0.3
;MAXX:168.1
;MAXY:147.6
;MAXZ:23.5
;Generated with Cura_SteamEngine 4.8.0
M140 S60
M105
M190 S60
M104 S200
M105
M109 S200
M82 ;absolute extrusion mode
G21 ;metric values
G90 ;absolute positioning
M82 ;set extruder to absolute mode
M107 ;start with the fan off
G28 X0 Y0 ;move X/Y to min endstops
G28 Z0 ;move Z to min endstops
G1 Z15.0 F60 ;move the platform down 15mm
G92 E0 ;zero the extruded length
G1 F200 E3 ;extrude 3mm of feed stock
G92 E0 ;zero the extruded length again
G1 F60
M117 Printing...
G5
G92 E0
G92 E0
G1 F3600 E-5
;LAYER_COUNT:117
;LAYER:0
M107
M204 S300
M205 X8.18 Y8.18
G0 F1200 X69.817 Y88.785 Z0.3
M205 X3 Y3
;TYPE:SKIRT
G1 F3600 E0
G1 F1200 X70.262 Y88.482 E0.02686
G1 X71.029 Y88.069 E0.07032
G1 X71.592 Y87.837 E0.1007
G1 X72.349 Y87.611 E0.14011
G1 X72.913 Y87.5 E0.16879
G1 X73.503 Y87.438 E0.19839
G1 X73.739 Y87.426 E0.21018
G1 X75.045 Y87.4 E0.27535
G1 X160.345 Y87.4 E4.53098
G1 X161.043 Y87.41 E4.56581
G1 X161.633 Y87.45 E4.59531
G1 X162.094 Y87.502 E4.61846
G1 X162.677 Y87.617 E4.6481
G1 X163.432 Y87.846 E4.68746
G1 X163.987 Y88.077 E4.71746
G1 X164.691 Y88.455 E4.75732
G1 X165.164 Y88.769 E4.78565
G1 X165.785 Y89.276 E4.82564
G1 X166.222 Y89.714 E4.85651
G1 X166.719 Y90.324 E4.89577
G1 X167.004 Y90.741 E4.92096
G1 X167.432 Y91.53 E4.96575
G1 X167.661 Y92.086 E4.99575
G1 X167.882 Y92.82 E5.03399
G1 X168.008 Y93.471 E5.06707
G1 X168.061 Y93.995 E5.09335
G1 X168.074 Y94.237 E5.10544
G1 X168.1 Y95.545 E5.17071
G1 X168.099 Y139.823 E7.37974
G1 X168.089 Y140.548 E7.41592
G1 X168.05 Y141.136 E7.44532
G1 X168 Y141.584 E7.46781
G1 X167.886 Y142.165 E7.49735
G1 X167.654 Y142.93 E7.53723
G1 X167.421 Y143.493 E7.56763
G1 X167.033 Y144.21 E7.6083
G1 X166.732 Y144.663 E7.63544
G1 X166.233 Y145.276 E7.67487
G1 X166.147 Y145.374 E7.68137
G1 X165.781 Y145.727 E7.70674
G1 X165.182 Y146.216 E7.74532
G1 X164.674 Y146.556 E7.77582
G1 X164.012 Y146.912 E7.81332
G1 X163.406 Y147.163 E7.84604
G1 X162.654 Y147.388 E7.8852
G1 X162.087 Y147.5 E7.91404
G1 X161.497 Y147.562 E7.94364
G1 X161.261 Y147.574 E7.95542
G1 X159.956 Y147.6 E8.02054
G1 X74.648 Y147.599 E12.27658
G1 X73.949 Y147.589 E12.31145
G1 X73.342 Y147.547 E12.34181
G1 X72.874 Y147.492 E12.36532
G1 X72.31 Y147.38 E12.39401
G1 X71.564 Y147.153 E12.43291
G1 X71.007 Y146.921 E12.46301
G1 X70.309 Y146.545 E12.50257
G1 X69.839 Y146.234 E12.53068
G1 X69.215 Y145.724 E12.57089
G1 X69.163 Y145.679 E12.57432
G1 X68.774 Y145.281 E12.60209
G1 X68.275 Y144.67 E12.64144
G1 X67.979 Y144.231 E12.66786
G1 X67.567 Y143.467 E12.71116
G1 X67.338 Y142.911 E12.74116
G1 X67.111 Y142.151 E12.78074
G1 X67 Y141.587 E12.80941
G1 X66.939 Y141.006 E12.83856
G1 X66.926 Y140.764 E12.85065
G1 X66.9 Y139.455 E12.91597
G1 X66.901 Y95.119 E15.1279
G1 X66.911 Y94.439 E15.16183
G1 X66.951 Y93.854 E15.19108
G1 X67.004 Y93.391 E15.21433
G1 X67.12 Y92.809 E15.24394
G1 X67.352 Y92.053 E15.28339
G1 X67.582 Y91.505 E15.31304
G1 X67.953 Y90.813 E15.35222
G1 X68.288 Y90.31 E15.38237
G1 X68.781 Y89.709 E15.42115
G1 X69.222 Y89.27 E15.45219
G1 X69.817 Y88.785 E15.49049
M205 X8.18 Y8.18
G0 X70.065 Y89.098
M205 X3 Y3
G1 X70.695 Y88.695 E15.5278
G1 X71.212 Y88.425 E15.5569
G1 X71.712 Y88.218 E15.5839
G1 X72.457 Y87.996 E15.62268
G1 X72.959 Y87.897 E15.64821
G1 X73.537 Y87.837 E15.6772
G1 X73.747 Y87.826 E15.68769
G1 X75.045 Y87.8 E15.75246
G1 X160.339 Y87.8 E20.0078
G1 X161.037 Y87.81 E20.04263
G1 X161.588 Y87.847 E20.07018
G1 X162.049 Y87.899 E20.09332
G1 X162.568 Y88.002 E20.11972
G1 X163.31 Y88.227 E20.1584
G1 X163.804 Y88.432 E20.18509
G1 X164.497 Y88.805 E20.22435
G1 X164.918 Y89.084 E20.24955
G1 X165.527 Y89.582 E20.2888
G1 X165.915 Y89.971 E20.31621
G1 X166.406 Y90.572 E20.35493
G1 X166.795 Y91.176 E20.39077
G1 X167.076 Y91.713 E20.42101
G1 X167.28 Y92.207 E20.44767
G1 X167.497 Y92.93 E20.48533
G1 X167.61 Y93.515 E20.51506
G1 X167.663 Y94.03 E20.54088
G1 X167.674 Y94.245 E20.55162
G1 X167.7 Y95.545 E20.61649
G1 X167.699 Y139.817 E22.82523
G1 X167.689 Y140.542 E22.86141
G1 X167.652 Y141.092 E22.88891
G1 X167.602 Y141.54 E22.9114
G1 X167.501 Y142.056 E22.93763
G1 X167.273 Y142.809 E22.97688
G1 X167.066 Y143.309 E23.00388
G1 X166.684 Y144.014 E23.04388
G1 X166.24 Y144.644 E23.08234
G1 X165.859 Y145.097 E23.11187
G1 X165.249 Y145.651 E23.15298
G1 X164.666 Y146.094 E23.18951
G1 X164.185 Y146.371 E23.2172
G1 X163.613 Y146.658 E23.24913
G1 X162.992 Y146.875 E23.28195
G1 X162.545 Y147.003 E23.30515
G1 X162.041 Y147.103 E23.33078
G1 X161.463 Y147.163 E23.35977
G1 X161.253 Y147.174 E23.37026
G1 X159.956 Y147.2 E23.43498
G1 X74.653 Y147.199 E27.69077
G1 X73.954 Y147.189 E27.72564
G1 X73.389 Y147.15 E27.7539
G1 X72.921 Y147.095 E27.77741
G1 X72.419 Y146.995 E27.80295
G1 X71.686 Y146.772 E27.84117
G1 X71.191 Y146.566 E27.86792
G1 X70.503 Y146.195 E27.90692
G1 X70.086 Y145.919 E27.93186
G1 X69.474 Y145.419 E27.97129
G1 X69.081 Y145.024 E27.99909
G1 X68.589 Y144.422 E28.03788
G1 X68.194 Y143.804 E28.07447
G1 X67.923 Y143.284 E28.10373
G1 X67.719 Y142.79 E28.13039
G1 X67.496 Y142.043 E28.16928
G1 X67.397 Y141.541 E28.19481
G1 X67.337 Y140.971 E28.2234
G1 X67.326 Y140.756 E28.23415
G1 X67.3 Y139.455 E28.29907
G1 X67.301 Y95.125 E30.5107
G1 X67.311 Y94.445 E30.54463
G1 X67.349 Y93.899 E30.57193
G1 X67.402 Y93.436 E30.59518
G1 X67.505 Y92.919 E30.62148
G1 X67.733 Y92.176 E30.66026
G1 X67.937 Y91.689 E30.6866
G1 X68.303 Y91.007 E30.72521
G1 X68.608 Y90.55 E30.75263
G1 X69.086 Y89.967 E30.79024
G1 X69.479 Y89.577 E30.81786
G1 X70.065 Y89.098 E30.85562
M205 X8.18 Y8.18
G1 F3600 E25.85562
;MESH:c05bc734-abc4-4426-bbef-dc7ac8a0317c.stl
G0 F1200 X73.904 Y90.343
G0 X74.029 Y91.619
G0 X161.554 Y91.758
G0 X161.573 Y91.66
M205 X3 Y3
;TYPE:WALL-INNER
G1 F3600 E30.85562
G1 F1200 X162.11 Y91.824 E30.88363
G1 X162.615 Y92.095 E30.91223
G1 X163.048 Y92.45 E30.94016
G1 X163.413 Y92.897 E30.96895
G1 X163.678 Y93.392 E30.99696
G1 X163.842 Y93.934 E31.02522
G1 X163.9 Y94.528 E31.05499
G1 X163.899 Y140.479 E33.3475
G1 X163.84 Y141.072 E33.37723
G1 X163.676 Y141.61 E33.40529
G1 X163.405 Y142.115 E33.43388
G1 X163.05 Y142.548 E33.46182
G1 X162.603 Y142.913 E33.49061
G1 X162.108 Y143.178 E33.51862
G1 X161.566 Y143.342 E33.54687
G1 X160.972 Y143.4 E33.57665
G1 X74.021 Y143.399 E37.91465
G1 X73.428 Y143.34 E37.94438
G1 X72.89 Y143.176 E37.97244
G1 X72.386 Y142.906 E38.00096
G1 X71.95 Y142.548 E38.02911
G1 X71.584 Y142.099 E38.05801
G1 X71.323 Y141.612 E38.08558
G1 X71.158 Y141.066 E38.11403
G1 X71.1 Y140.47 E38.14391
G1 X71.101 Y94.52 E40.43636
G1 X71.16 Y93.927 E40.46609
G1 X71.324 Y93.39 E40.49411
G1 X71.595 Y92.885 E40.5227
G1 X71.95 Y92.452 E40.55063
G1 X72.397 Y92.087 E40.57943
G1 X72.892 Y91.822 E40.60744
G1 X73.434 Y91.658 E40.63569
G1 X74.029 Y91.6 E40.66551
G1 X160.97 Y91.6 E45.00302
G1 X161.573 Y91.66 E45.03325
M205 X8.18 Y8.18
G0 X161.654 Y91.266
M205 X3 Y3
;TYPE:WALL-OUTER
G1 X162.26 Y91.451 E45.06486
G1 X162.837 Y91.761 E45.09754
G1 X163.335 Y92.169 E45.12966
G1 X163.748 Y92.675 E45.16224
G1 X164.049 Y93.237 E45.19405
G1 X164.236 Y93.854 E45.22622
G1 X164.3 Y94.51 E45.2591
G1 X164.299 Y140.498 E47.55345
G1 X164.234 Y141.154 E47.58634
G1 X164.049 Y141.76 E47.61795
G1 X163.739 Y142.337 E47.65063
G1 X163.331 Y142.835 E47.68275
G1 X162.825 Y143.248 E47.71533
G1 X162.263 Y143.549 E47.74714
G1 X161.646 Y143.736 E47.7793
G1 X160.99 Y143.8 E47.81219
G1 X74.002 Y143.799 E52.15204
G1 X73.346 Y143.734 E52.18492
G1 X72.74 Y143.549 E52.21653
G1 X72.161 Y143.238 E52.24932
G1 X71.665 Y142.831 E52.28133
G1 X71.252 Y142.324 E52.31396
G1 X70.951 Y141.763 E52.34572
G1 X70.764 Y141.146 E52.37789
G1 X70.7 Y140.488 E52.41087
G1 X70.701 Y94.5 E54.70522
G1 X70.766 Y93.846 E54.73801
G1 X70.951 Y93.24 E54.76962
G1 X71.261 Y92.663 E54.8023
G1 X71.669 Y92.165 E54.83442
G1 X72.175 Y91.752 E54.867
G1 X72.737 Y91.451 E54.89881
G1 X73.354 Y91.264 E54.93097
G1 X74.01 Y91.2 E54.96386
G1 X160.99 Y91.2 E59.30331
G1 X161.654 Y91.266 E59.3366
M205 X8.18 Y8.18
G0 X161.845 Y91.324
G0 X161.495 Y92.044
M205 X3 Y3
;TYPE:SKIN
G1 X161.957 Y92.185 E59.3607
G1 X162.399 Y92.422 E59.38572
G1 X162.773 Y92.729 E59.40986
G1 X163.089 Y93.115 E59.43475
G1 X163.316 Y93.539 E59.45874
G1 X163.458 Y94.01 E59.48328
G1 X163.51 Y94.545 E59.5101
G1 X163.509 Y140.459 E61.80076
G1 X163.456 Y140.995 E61.82763
G1 X163.315 Y141.457 E61.85173
G1 X163.078 Y141.899 E61.87675
G1 X162.771 Y142.273 E61.90089
G1 X162.385 Y142.589 E61.92578
G1 X161.961 Y142.816 E61.94977
G1 X161.49 Y142.958 E61.97432
G1 X160.955 Y143.01 E62.00113
G1 X74.04 Y143.009 E66.33734
G1 X73.503 Y142.956 E66.36426
G1 X73.038 Y142.814 E66.38852
G1 X72.607 Y142.583 E66.41291
G1 X72.225 Y142.269 E66.43758
G1 X71.908 Y141.881 E66.46258
G1 X71.685 Y141.465 E66.48613
G1 X71.542 Y140.991 E66.51083
G1 X71.49 Y140.45 E66.53794
G1 X71.491 Y94.537 E68.82855
G1 X71.544 Y94.005 E68.85523
G1 X71.685 Y93.543 E68.87933
G1 X71.922 Y93.101 E68.90435
G1 X72.229 Y92.727 E68.92849
G1 X72.615 Y92.411 E68.95337
G1 X73.039 Y92.184 E68.97737
G1 X73.51 Y92.042 E69.00191
G1 X74.046 Y91.99 E69.02878
G1 X160.951 Y91.99 E73.36449
G1 X161.495 Y92.044 E73.39176
M205 X8.18 Y8.18
G0 X161.935 Y92.355
M205 X3 Y3
G1 X163.154 Y93.575 E73.4778
M205 X8.18 Y8.18
G0 X163.326 Y94.312
M205 X3 Y3
G1 X161.188 Y92.174 E73.62865
M205 X8.18 Y8.18
G0 X160.598 Y92.15
M205 X3 Y3
G1 X163.349 Y94.901 E73.82275
M205 X8.18 Y8.18
G0 X163.349 Y95.467
M205 X3 Y3
G1 X160.032 Y92.15 E74.05678
M205 X8.18 Y8.18
G0 X159.466 Y92.15
M205 X3 Y3
G1 X163.349 Y96.032 E74.33071
M205 X8.18 Y8.18
G0 X163.349 Y96.598
M205 X3 Y3
G1 X158.901 Y92.15 E74.64454
M205 X8.18 Y8.18
G0 X158.335 Y92.15
M205 X3 Y3
G1 X163.349 Y97.164 E74.99831
M205 X8.18 Y8.18
G0 X163.349 Y97.729
M205 X3 Y3
G1 X157.769 Y92.15 E75.39197
M205 X8.18 Y8.18
G0 X157.203 Y92.15
M205 X3 Y3
G1 X163.349 Y98.295 E75.82557
M205 X8.18 Y8.18
G0 X163.349 Y98.861
M205 X3 Y3
G1 X156.638 Y92.15 E76.29907
M205 X8.18 Y8.18
G0 X156.072 Y92.15
M205 X3 Y3
G1 X163.349 Y99.426 E76.81246
M205 X8.18 Y8.18
G0 X163.349 Y99.992
M205 X3 Y3
G1 X155.506 Y92.15 E77.36579
M205 X8.18 Y8.18
G0 X154.941 Y92.15
M205 X3 Y3
G1 X163.349 Y100.558 E77.95902
M205 X8.18 Y8.18
G0 X163.349 Y101.124
M205 X3 Y3
G1 X154.375 Y92.15 E78.59219
M205 X8.18 Y8.18
G0 X153.809 Y92.15
M205 X3 Y3
G1 X163.349 Y101.689 E79.26525
M205 X8.18 Y8.18
G0 X163.349 Y102.255
M205 X3 Y3
G1 X153.244 Y92.15 E79.97821
M205 X8.18 Y8.18
G0 X152.678 Y92.15
M205 X3 Y3
G1 X163.349 Y102.821 E80.73111
M205 X8.18 Y8.18
G0 X163.349 Y103.386
M205 X3 Y3
G1 X152.112 Y92.15 E81.52391
M205 X8.18 Y8.18
G0 X151.547 Y92.15
M205 X3 Y3
G1 X163.349 Y103.952 E82.3566
M205 X8.18 Y8.18
G0 X163.349 Y104.518
M205 X3 Y3
G1 X150.981 Y92.15 E83.22923
M205 X8.18 Y8.18
G0 X150.415 Y92.15
M205 X3 Y3
G1 X163.349 Y105.083 E84.14176
M205 X8.18 Y8.18
G0 X163.349 Y105.649
M205 X3 Y3
G1 X149.85 Y92.15 E85.09418
M205 X8.18 Y8.18
G0 X149.284 Y92.15
M205 X3 Y3
G1 X163.349 Y106.215 E86.08655
M205 X8.18 Y8.18
G0 X163.349 Y106.78
M205 X3 Y3
G1 X148.718 Y92.15 E87.11881
M205 X8.18 Y8.18
G0 X148.153 Y92.15
M205 X3 Y3
G1 X163.349 Y107.346 E88.19097
M205 X8.18 Y8.18
G0 X163.349 Y107.912
M205 X3 Y3
G1 X147.587 Y92.15 E89.30306
M205 X8.18 Y8.18
G0 X147.021 Y92.15
M205 X3 Y3
G1 X163.349 Y108.477 E90.45505
M205 X8.18 Y8.18
G0 X163.349 Y109.043
M205 X3 Y3
G1 X146.455 Y92.15 E91.64698
M205 X8.18 Y8.18
G0 X145.89 Y92.15
M205 X3 Y3
G1 X163.349 Y109.609 E92.87881
M205 X8.18 Y8.18
G0 X163.349 Y110.175
M205 X3 Y3
G1 X145.324 Y92.15 E94.15057
M205 X8.18 Y8.18
G0 X144.758 Y92.15
M205 X3 Y3
G1 X163.349 Y110.74 E95.46223
M205 X8.18 Y8.18
G0 X163.349 Y111.306
M205 X3 Y3
G1 X144.193 Y92.15 E96.81379
M205 X8.18 Y8.18
G0 X143.627 Y92.15
M205 X3 Y3
G1 X163.349 Y111.872 E98.20528
M205 X8.18 Y8.18
G0 X163.349 Y112.437
M205 X3 Y3
G1 X143.061 Y92.15 E99.63668
M205 X8.18 Y8.18
G0 X142.496 Y92.15
M205 X3 Y3
G1 X163.349 Y113.003 E101.10797
M205 X8.18 Y8.18
G0 X163.349 Y113.569
M205 X3 Y3
G1 X141.93 Y92.15 E102.61919
M205 X8.18 Y8.18
G0 X141.364 Y92.15
M205 X3 Y3
G1 X163.349 Y114.134 E104.17032
M205 X8.18 Y8.18
G0 X163.349 Y114.7
M205 X3 Y3
G1 X140.799 Y92.15 E105.76134
M205 X8.18 Y8.18
G0 X140.233 Y92.15
M205 X3 Y3
G1 X163.349 Y115.266 E107.3923
M205 X8.18 Y8.18
G0 X163.349 Y115.831
M205 X3 Y3
G1 X139.667 Y92.15 E109.06316
M205 X8.18 Y8.18
G0 X139.102 Y92.15
M205 X3 Y3
G1 X163.349 Y116.397 E110.77392
M205 X8.18 Y8.18
G0 X163.349 Y116.963
M205 X3 Y3
G1 X138.536 Y92.15 E112.52461
M205 X8.18 Y8.18
G0 X137.97 Y92.15
M205 X3 Y3
G1 X163.349 Y117.528 E114.3152
M205 X8.18 Y8.18
G0 X163.349 Y118.094
M205 X3 Y3
G1 X137.404 Y92.15 E116.14572
M205 X8.18 Y8.18
G0 X136.839 Y92.15
M205 X3 Y3
G1 X163.349 Y118.66 E118.01615
M205 X8.18 Y8.18
G0 X163.349 Y119.225
M205 X3 Y3
G1 X136.273 Y92.15 E119.92647
M205 X8.18 Y8.18
G0 X135.707 Y92.15
M205 X3 Y3
G1 X163.349 Y119.791 E121.87673
M205 X8.18 Y8.18
G0 X163.349 Y120.357
M205 X3 Y3
G1 X135.142 Y92.15 E123.86688
M205 X8.18 Y8.18
G0 X134.576 Y92.15
M205 X3 Y3
G1 X163.349 Y120.923 E125.89697
M205 X8.18 Y8.18
G0 X163.349 Y121.488
M205 X3 Y3
G1 X134.01 Y92.15 E127.96696
M205 X8.18 Y8.18
G0 X133.445 Y92.15
M205 X3 Y3
G1 X163.349 Y122.054 E130.07685
M205 X8.18 Y8.18
G0 X163.349 Y122.62
M205 X3 Y3
G1 X132.879 Y92.15 E132.22667
M205 X8.18 Y8.18
G0 X132.313 Y92.15
M205 X3 Y3
G1 X163.349 Y123.185 E134.4164
M205 X8.18 Y8.18
G0 X163.349 Y123.751
M205 X3 Y3
G1 X131.748 Y92.15 E136.64602
M205 X8.18 Y8.18
G0 X131.182 Y92.15
M205 X3 Y3
G1 X163.349 Y124.317 E138.91557
M205 X8.18 Y8.18
G0 X163.349 Y124.882
M205 X3 Y3
G1 X130.616 Y92.15 E141.22503
M205 X8.18 Y8.18
G0 X130.051 Y92.15
M205 X3 Y3
G1 X163.349 Y125.448 E143.57438
M205 X8.18 Y8.18
G0 X163.349 Y126.014
M205 X3 Y3
G1 X129.485 Y92.15 E145.96367
M205 X8.18 Y8.18
G0 X128.919 Y92.15
M205 X3 Y3
G1 X163.349 Y126.579 E148.39286
M205 X8.18 Y8.18
G0 X163.349 Y127.145
M205 X3 Y3
G1 X128.354 Y92.15 E150.86194
M205 X8.18 Y8.18
G0 X127.788 Y92.15
M205 X3 Y3
G1 X163.349 Y127.711 E153.37096
M205 X8.18 Y8.18
G0 X163.349 Y128.276
M205 X3 Y3
G1 X127.222 Y92.15 E155.91988
M205 X8.18 Y8.18
G0 X126.656 Y92.15
M205 X3 Y3
G1 X163.349 Y128.842 E158.50874
M205 X8.18 Y8.18
G0 X163.349 Y129.408
M205 X3 Y3
G1 X126.091 Y92.15 E161.13749
M205 X8.18 Y8.18
G0 X125.525 Y92.15
M205 X3 Y3
G1 X163.349 Y129.974 E163.80618
M205 X8.18 Y8.18
G0 X163.349 Y130.539
M205 X3 Y3
G1 X124.959 Y92.15 E166.51476
M205 X8.18 Y8.18
G0 X124.394 Y92.15
M205 X3 Y3
G1 X163.349 Y131.105 E169.26325
M205 X8.18 Y8.18
G0 X163.349 Y131.671
M205 X3 Y3
G1 X123.828 Y92.15 E172.05167
M205 X8.18 Y8.18
G0 X123.262 Y92.15
M205 X3 Y3
G1 X163.349 Y132.236 E174.87999
M205 X8.18 Y8.18
G0 X163.349 Y132.802
M205 X3 Y3
G1 X122.697 Y92.15 E177.74821
M205 X8.18 Y8.18
G0 X122.131 Y92.15
M205 X3 Y3
G1 X163.349 Y133.368 E180.65636
M205 X8.18 Y8.18
G0 X163.349 Y133.933
M205 X3 Y3
G1 X121.565 Y92.15 E183.60441
M205 X8.18 Y8.18
G0 X121 Y92.15
M205 X3 Y3
G1 X163.349 Y134.499 E186.59236
M205 X8.18 Y8.18
G0 X163.349 Y135.065
M205 X3 Y3
G1 X120.434 Y92.15 E189.62025
M205 X8.18 Y8.18
G0 X119.868 Y92.15
M205 X3 Y3
G1 X163.349 Y135.63 E192.68803
M205 X8.18 Y8.18
G0 X163.349 Y136.196
M205 X3 Y3
G1 X119.303 Y92.15 E195.79571
M205 X8.18 Y8.18
G0 X118.737 Y92.15
M205 X3 Y3
G1 X163.349 Y136.762 E198.94333
M205 X8.18 Y8.18
G0 X163.349 Y137.327
M205 X3 Y3
G1 X118.171 Y92.15 E202.13085
M205 X8.18 Y8.18
G0 X117.605 Y92.15
M205 X3 Y3
G1 X163.349 Y137.893 E205.3583
M205 X8.18 Y8.18
G0 X163.349 Y138.459
M205 X3 Y3
G1 X117.04 Y92.15 E208.62565
M205 X8.18 Y8.18
G0 X116.474 Y92.15
M205 X3 Y3
G1 X163.349 Y139.024 E211.9329
M205 X8.18 Y8.18
G0 X163.349 Y139.59
M205 X3 Y3
G1 X115.908 Y92.15 E215.28008
M205 X8.18 Y8.18
G0 X115.343 Y92.15
M205 X3 Y3
G1 X163.349 Y140.156 E218.66717
M205 X8.18 Y8.18
G0 X163.324 Y140.697
M205 X3 Y3
G1 X114.777 Y92.15 E222.09242
M205 X8.18 Y8.18
G0 X114.211 Y92.15
M205 X3 Y3
G1 X163.234 Y141.173 E225.55126
M205 X8.18 Y8.18
G0 X163.07 Y141.574
M205 X3 Y3
G1 X113.646 Y92.15 E229.03839
M205 X8.18 Y8.18
G0 X113.08 Y92.15
M205 X3 Y3
G1 X162.851 Y141.921 E232.55
M205 X8.18 Y8.18
G0 X162.582 Y142.218
M205 X3 Y3
G1 X112.514 Y92.15 E236.08257
M205 X8.18 Y8.18
